src/Assets/icons/17-solution/rubicscube-check-solution-icon-nobg.svg

<svg viewBox="0 0 2000 2000" xmlns="http://www.w3.org/2000/svg" xml:space="preserve" style="fill-rule:evenodd;clip-rule:evenodd;stroke-linejoin:round;stroke-miterlimit:2">
    <path style="fill:none" d="M0 0h2000v2000H0z"/>
    <path d="m730.696 1158.59 267.764 154.6V1004L195.167 540.219v309.187L462.932 1004 195.167 849.406v309.184l535.529 309.19-267.764-154.59v309.19l267.764 154.59v-309.19 309.19l267.764 154.59v-618.37l-267.764-154.6Zm-267.764 154.6-267.765-154.6v309.19l267.765 154.6v-309.19Z" style="fill:#1bb11b"/>
    <path d="M1805.75 536.219 1002.46 1000v618.38l90.51-52.26-90.51 52.26v309.18l267.76-154.59v-309.19l267.77-154.59-267.77 154.59v309.19l535.53-309.19V845.406L1537.99 1000l267.76-154.594V536.219Zm-803.29 772.971 267.76-154.6-267.76 154.6Z" style="fill:#271bb1"/>
    <path d="M1002.46 72.438 466.932 381.625l267.764 154.594-199.909 115.417 199.909-115.417-267.764-154.594-267.765 154.594L1002.46 1000l267.76-154.594-267.76-154.593 267.76-154.594-267.76 154.594 267.76 154.593 535.53-309.187-535.53-309.187-267.76 154.593 267.76-154.593-267.76-154.594Z" style="fill:#b11b1b"/>
    <path d="M176.641 517.693a29.165 29.165 0 0 0-10.64 22.526v927.561c0 10.42 5.559 20.05 14.583 25.26l803.292 463.78a29.162 29.162 0 0 0 29.164 0c2.73-1.57 5.14-3.55 7.18-5.83 35.27-20.36 800.12-461.95 800.12-461.95a29.174 29.174 0 0 0 14.58-25.26V536.219l-.05.054c.03-.107.05-.208.05-.298l-.01-.147.01-.022-.01-.304v-.013l-.01-.147v-.022l-.01-.302v-.014l-.01-.148.01-.022-.02-.3v-.013l-.01-.148v-.022l-.02-.299v-.014l-.02-.148v-.022l-.02-.298v-.014l-.02-.147v-.022l-.03-.296v-.015l-.02-.147v-.022l-.06-.477-.06-.476-.08-.475-.08-.472-.09-.47-.1-.468-.1-.466-.11-.463-.12-.461-.13-.459-.13-.456-.14-.453-.15-.451-.16-.448-.16-.444-.17-.442-.18-.439-.18-.435-.19-.433-.2-.429-.21-.425-.21-.422-.22-.419-.22-.415-.23-.411-.24-.407-.25-.404-.25-.399-.26-.396-.26-.391-.27-.387-.28-.383-.28-.379-.29-.374-.3-.369-.3-.365-.31-.36-.31-.356-.32-.35-.33-.346-.33-.341-.34-.335-.34-.33-.35-.325-.35-.32-.36-.314-.37-.309-.37-.303-.38-.297-.38-.291-.39-.286-.4-.279-.39-.274-.41-.267-.41-.261-.41-.255-.48-.284v-.001l-803.3-463.781a29.162 29.162 0 0 0-29.164 0L184.584 510.96a29.133 29.133 0 0 0-7.943 6.733ZM969.293 1639.21v241.83s-179.626-103.7-209.431-120.91V1518.3l209.431 120.91Zm271.767-124.91v241.83c-.66.38-1.38.79-2.17 1.25l-207.26 119.66v-241.83l209.43-120.91Zm-539.531-29.68v241.83l-209.431-120.91V1363.7l209.431 120.92Zm807.291-124.92v241.84s-162.57 93.86-209.43 120.91v-241.83l209.43-120.92ZM433.765 1571.86l-209.431-120.92v-241.83l209.431 120.92v241.83Zm326.097-120.92v-241.83c42.971 24.81 183.413 105.9 209.431 120.92v241.83l-209.431-120.92Zm271.768-124.91 209.43-120.92v241.83l-209.43 120.92v-241.83Zm744.96-120.92v241.83s-162.58 93.86-209.44 120.92v-241.83l209.44-120.92Zm-1284.492 91.24v-241.83l209.431 120.91v241.83l-209.431-120.91Zm807.292-124.92s162.57-93.86 209.43-120.91v241.83s-162.57 93.86-209.43 120.91v-241.83Zm-1075.056-29.68V899.924l209.431 120.916v241.83l-209.431-120.92Zm535.528-241.826 209.431 120.916v241.83l-209.431-120.92V899.924Zm807.288 116.916 209.44-120.916v241.826l-209.44 120.92v-241.83Zm-326.09-120.916v241.826l-209.43 120.92v-241.83l209.43-120.916Zm-748.962 91.237v-241.83l209.431 120.915v241.834L492.098 987.161Zm1016.722-245.83v241.83l-209.43 120.919V862.246l209.43-120.915Zm-296.93 104.075-209.43 120.915-209.431-120.915 209.431-120.915 209.43 120.915ZM433.765 711.652v241.83L224.333 832.567l.001-2.499V590.737l209.431 120.915ZM1776.59 586.737v241.83l-209.44 120.915v-241.83l209.44-120.915ZM944.126 690.813l-209.43 120.915-209.431-120.915 209.431-120.915 209.43 120.915Zm535.524 0s-179.62 103.707-209.43 120.915l-209.43-120.915 209.43-120.915 209.43 120.915ZM793.029 536.219l209.431-120.915 209.43 120.915-209.43 120.915-209.431-120.915Zm-116.667 0-209.43 120.915-209.431-120.915 209.431-120.915 209.43 120.915Zm1071.058 0-209.43 120.915-209.43-120.915 209.43-120.915 209.43 120.915Zm-686.63-154.594 209.43-120.915s162.58 93.861 209.43 120.915L1270.22 502.54l-209.43-120.915Zm-535.525 0L734.696 260.71l209.43 120.915-209.43 120.915-209.431-120.915Zm267.764-154.593 209.431-120.915 209.43 120.915-209.43 120.915-209.431-120.915Z"/>
    <path d="M2787.79 1310.81 2476.98 1000 2239 1237.98l546.59 546.59 1.77-1.76 1.77 1.76L4173.72 399.981l-237.55-237.555L2787.79 1310.81Z" style="fill:#6ee96e" transform="translate(-2206.36 26.5)"/>
    <path d="m581.426 1293.11-288.71-288.71c-12.203-12.201-31.99-12.201-44.194 0l-237.98 237.98c-12.204 12.21-12.204 31.99 0 44.2l546.593 546.59c6.552 6.55 15.289 9.59 23.865 9.1 8.576.49 17.313-2.55 23.865-9.1L1989.46 448.578c12.2-12.204 12.2-31.991 0-44.194L1751.9 166.829c-12.2-12.204-31.99-12.204-44.19 0L581.426 1293.11Zm-504.593-28.63 193.786-193.79 288.71 288.71c12.204 12.21 31.99 12.21 44.194 0L1729.81 233.12l193.36 193.361L581 1768.65 76.833 1264.48Z"/>
</svg>

<?xml version="1.0" encoding="UTF-8" standalone="no"?>
<!DOCTYPE svg PUBLIC "-//W3C//DTD SVG 1.1//EN" "http://www.w3.org/Graphics/SVG/1.1/DTD/svg11.dtd">
<svg width="100%" height="100%" viewBox="0 0 2000 2000" version="1.1" xmlns="http://www.w3.org/2000/svg" xmlns:xlink="http://www.w3.org/1999/xlink" xml:space="preserve" xmlns:serif="http://www.serif.com/" style="fill-rule:evenodd;clip-rule:evenodd;stroke-linejoin:round;stroke-miterlimit:2;">
    <rect id="rubicscube-haken-loesung-icon" x="0" y="0" width="2000" height="2000" style="fill:none;"/>
    <g id="rubicscube-haken-loesung-icon1" serif:id="rubicscube-haken-loesung-icon">
        <g id="RubicsCube">
            <path d="M730.696,1158.59L998.46,1313.19L998.46,1004L195.167,540.219L195.167,849.406L462.932,1004L195.167,849.406L195.167,1158.59L730.696,1467.78L462.932,1313.19L462.932,1622.38L730.696,1776.97L730.696,1467.78L730.696,1776.97L998.46,1931.56L998.46,1313.19L730.696,1158.59ZM462.932,1313.19L195.167,1158.59L195.167,1467.78L462.932,1622.38L462.932,1313.19Z" style="fill:rgb(27,177,27);"/>
            <path d="M1805.75,536.219L1002.46,1000L1002.46,1618.38L1092.97,1566.12L1002.46,1618.38L1002.46,1927.56L1270.22,1772.97L1270.22,1463.78L1537.99,1309.19L1270.22,1463.78L1270.22,1772.97L1805.75,1463.78L1805.75,845.406L1537.99,1000L1805.75,845.406L1805.75,536.219ZM1002.46,1309.19L1270.22,1154.59L1002.46,1309.19Z" style="fill:rgb(39,27,177);"/>
            <path d="M1002.46,72.438L466.932,381.625L734.696,536.219L534.787,651.636L734.696,536.219L466.932,381.625L199.167,536.219L1002.46,1000L1270.22,845.406L1002.46,690.813L1270.22,536.219C1270.22,536.219 1002.46,690.813 1002.46,690.813L1270.22,845.406L1805.75,536.219L1270.22,227.032L1002.46,381.625L1270.22,227.032L1002.46,72.438Z" style="fill:rgb(177,27,27);"/>
            <path d="M176.641,517.693C169.969,523.178 166.001,531.416 166.001,540.219C166.001,540.219 166.001,1467.78 166.001,1467.78C166.001,1478.2 171.56,1487.83 180.584,1493.04C180.584,1493.04 983.876,1956.82 983.876,1956.82C992.901,1962.03 1004.02,1962.03 1013.04,1956.82C1015.77,1955.25 1018.18,1953.27 1020.22,1950.99C1055.49,1930.63 1820.34,1489.04 1820.34,1489.04C1829.36,1483.83 1834.92,1474.2 1834.92,1463.78L1834.92,536.219L1834.87,536.273C1834.9,536.166 1834.92,536.065 1834.92,535.975L1834.91,535.828L1834.92,535.806L1834.91,535.502L1834.91,535.489L1834.9,535.342L1834.9,535.32L1834.89,535.018L1834.89,535.004L1834.88,534.856L1834.89,534.834L1834.87,534.534L1834.87,534.521L1834.86,534.373L1834.86,534.351L1834.84,534.052L1834.84,534.038L1834.82,533.89L1834.82,533.868L1834.8,533.57L1834.8,533.556L1834.78,533.409L1834.78,533.387L1834.75,533.091L1834.75,533.076L1834.73,532.929L1834.73,532.907L1834.67,532.43L1834.61,531.954L1834.53,531.479L1834.45,531.007L1834.36,530.537L1834.26,530.069L1834.16,529.603L1834.05,529.14L1833.93,528.679L1833.8,528.22L1833.67,527.764L1833.53,527.311L1833.38,526.86L1833.22,526.412L1833.06,525.968L1832.89,525.526L1832.71,525.087L1832.53,524.652L1832.34,524.219L1832.14,523.79L1831.93,523.365L1831.72,522.943L1831.5,522.524L1831.28,522.109L1831.05,521.698L1830.81,521.291L1830.56,520.887L1830.31,520.488L1830.05,520.092L1829.79,519.701L1829.52,519.314L1829.24,518.931L1828.96,518.552L1828.67,518.178L1828.37,517.809L1828.07,517.444L1827.76,517.084L1827.45,516.728L1827.13,516.378L1826.8,516.032L1826.47,515.691L1826.13,515.356L1825.79,515.026L1825.44,514.701L1825.09,514.381L1824.73,514.067L1824.36,513.758L1823.99,513.455L1823.61,513.158L1823.23,512.867L1822.84,512.581L1822.44,512.302L1822.05,512.028L1821.64,511.761L1821.23,511.5L1820.82,511.245L1820.34,510.961L1820.34,510.96L1017.04,47.179C1008.02,41.969 996.901,41.969 987.876,47.179C987.876,47.179 184.584,510.96 184.584,510.96C181.505,512.738 178.83,515.03 176.641,517.693ZM969.293,1639.21L969.293,1881.04C969.293,1881.04 789.667,1777.34 759.862,1760.13C759.862,1730.09 759.862,1567.92 759.862,1518.3L969.293,1639.21ZM1241.06,1514.3L1241.06,1756.13C1240.4,1756.51 1239.68,1756.92 1238.89,1757.38L1031.63,1877.04C1031.63,1877.04 1031.63,1635.21 1031.63,1635.21C1031.63,1635.21 1241.06,1514.3 1241.06,1514.3L1241.06,1514.3ZM701.529,1484.62L701.529,1726.45C701.529,1726.45 492.098,1605.54 492.098,1605.54C492.098,1575.49 492.098,1413.32 492.098,1363.7L701.529,1484.62ZM1508.82,1359.7L1508.82,1601.54C1508.82,1601.54 1346.25,1695.4 1299.39,1722.45C1299.39,1722.45 1299.39,1515.04 1299.39,1480.62L1508.82,1359.7ZM433.765,1571.86L224.334,1450.94L224.334,1209.11L433.765,1330.03L433.765,1571.86ZM759.862,1450.94L759.862,1209.11C802.833,1233.92 943.275,1315.01 969.293,1330.03C969.293,1360.07 969.293,1522.24 969.293,1571.86L759.862,1450.94ZM1031.63,1326.03L1241.06,1205.11C1241.06,1205.11 1241.06,1446.94 1241.06,1446.94C1241.06,1446.94 1031.63,1567.86 1031.63,1567.86L1031.63,1326.03ZM1776.59,1205.11L1776.59,1446.94C1776.59,1446.94 1614.01,1540.8 1567.15,1567.86C1567.15,1518.24 1567.15,1356.07 1567.15,1326.03C1567.15,1326.03 1776.59,1205.11 1776.59,1205.11L1776.59,1205.11ZM492.098,1296.35L492.098,1054.52C492.098,1054.52 701.529,1175.43 701.529,1175.43C701.529,1175.43 701.529,1417.26 701.529,1417.26L492.098,1296.35ZM1299.39,1171.43C1299.39,1171.43 1461.96,1077.57 1508.82,1050.52C1508.82,1050.52 1508.82,1292.35 1508.82,1292.35C1508.82,1292.35 1346.25,1386.21 1299.39,1413.26L1299.39,1171.43ZM224.334,1141.75L224.334,899.924C224.334,899.924 433.765,1020.84 433.765,1020.84C433.765,1020.84 433.765,1262.67 433.765,1262.67L224.334,1141.75ZM759.862,899.924L969.293,1020.84C969.293,1020.84 969.293,1262.67 969.293,1262.67C969.293,1262.67 759.862,1141.75 759.862,1141.75L759.862,899.924ZM1567.15,1016.84L1776.59,895.924C1776.59,895.924 1776.59,1137.75 1776.59,1137.75C1776.59,1137.75 1567.15,1258.67 1567.15,1258.67L1567.15,1016.84ZM1241.06,895.924L1241.06,1137.75C1241.06,1137.75 1031.63,1258.67 1031.63,1258.67C1031.63,1258.67 1031.63,1016.84 1031.63,1016.84C1031.63,1016.84 1241.06,895.924 1241.06,895.924L1241.06,895.924ZM492.098,987.161L492.098,745.331C492.098,745.331 701.529,866.246 701.529,866.246C701.529,866.246 701.529,1053.97 701.529,1108.08L492.098,987.161ZM1508.82,741.331L1508.82,983.161C1508.82,983.161 1299.39,1104.08 1299.39,1104.08C1299.39,1104.08 1299.39,862.246 1299.39,862.246L1508.82,741.331ZM1211.89,845.406L1002.46,966.321C1002.46,966.321 839.888,872.46 793.029,845.406C836,820.597 976.441,739.513 1002.46,724.491C1002.46,724.491 1211.89,845.406 1211.89,845.406L1211.89,845.406ZM433.765,711.652L433.765,953.482C433.765,953.482 224.333,832.567 224.333,832.567C224.334,831.811 224.334,830.977 224.334,830.068C224.334,794.48 224.334,639.114 224.334,590.737L433.765,711.652ZM1776.59,586.737L1776.59,828.567C1776.59,828.567 1567.15,949.482 1567.15,949.482C1567.15,949.482 1567.15,707.652 1567.15,707.652L1776.59,586.737ZM944.126,690.813L734.696,811.728C734.696,811.728 572.124,717.867 525.265,690.813C525.265,690.813 734.696,569.898 734.696,569.898L944.126,690.813ZM1479.65,690.813C1479.65,690.813 1300.03,794.52 1270.22,811.728C1270.22,811.728 1060.79,690.813 1060.79,690.813C1060.79,690.813 1270.22,569.898 1270.22,569.898L1479.65,690.813ZM793.029,536.219L1002.46,415.304C1002.46,415.304 1165.03,509.165 1211.89,536.219C1168.92,561.028 1028.48,642.112 1002.46,657.134L793.029,536.219ZM676.362,536.219L466.932,657.134C466.932,657.134 304.36,563.273 257.501,536.219C300.472,511.41 440.913,430.326 466.932,415.304C466.932,415.304 676.362,536.219 676.362,536.219L676.362,536.219ZM1747.42,536.219L1537.99,657.134C1537.99,657.134 1328.56,536.219 1328.56,536.219C1328.56,536.219 1537.99,415.304 1537.99,415.304L1747.42,536.219ZM1060.79,381.625L1270.22,260.71C1270.22,260.71 1432.8,354.571 1479.65,381.625C1479.65,381.625 1270.22,502.54 1270.22,502.54L1060.79,381.625ZM525.265,381.625L734.696,260.71C734.696,260.71 944.126,381.625 944.126,381.625C944.126,381.625 734.696,502.54 734.696,502.54L525.265,381.625ZM793.029,227.032L1002.46,106.117C1002.46,106.117 1211.89,227.032 1211.89,227.032C1211.89,227.032 1002.46,347.947 1002.46,347.947C1002.46,347.947 793.029,227.032 793.029,227.032L793.029,227.032Z"/>
        </g>
        <g transform="matrix(1,0,0,1,-2206.36,26.5)">
            <path d="M2787.79,1310.81L2476.98,1000L2239,1237.98L2785.59,1784.57L2787.36,1782.81L2789.13,1784.57L4173.72,399.981L3936.17,162.426L2787.79,1310.81Z" style="fill:rgb(110,233,110);"/>
        </g>
        <path d="M581.426,1293.11L292.716,1004.4C280.513,992.199 260.726,992.199 248.522,1004.4C248.522,1004.4 10.542,1242.38 10.542,1242.38C-1.662,1254.59 -1.662,1274.37 10.542,1286.58C10.542,1286.58 557.135,1833.17 557.135,1833.17C563.687,1839.72 572.424,1842.76 581,1842.27C589.576,1842.76 598.313,1839.72 604.865,1833.17C604.865,1833.17 1989.46,448.578 1989.46,448.578C2001.66,436.374 2001.66,416.587 1989.46,404.384C1989.46,404.384 1751.9,166.829 1751.9,166.829C1739.7,154.625 1719.91,154.625 1707.71,166.829L581.426,1293.11ZM76.833,1264.48L270.619,1070.69C341.619,1141.69 559.329,1359.4 559.329,1359.4C571.533,1371.61 591.319,1371.61 603.523,1359.4C603.523,1359.4 1729.81,233.12 1729.81,233.12C1775.08,278.39 1877.9,381.211 1923.17,426.481C1923.17,426.481 581,1768.65 581,1768.65L76.833,1264.48Z"/>
    </g>
</svg>
